X: 25505
T: Margaret MacLachlan
R: jig
M: 6/8
K: Dmajor
FG|:Add dcd|ede fd/e/f|gfg Bcd|ecA AFG|
Add dcd|ede fef|Bgf edc|1 Adc dcB:|2 Adc dfg||
afa ded|f/g/af def|gfg Bcd|ecA Afg|
afa ded|faf def|ge/f/g edc|Adc dfg|
afa ded|f/g/af def|gfg Bcd|efd cdB|
Add dcd|ede fef|Bgf edc|Adc dcB||

